_includes/icons/ios-winter.svg

<svg fill="#666" height="50" viewBox="0 0 50 50" width="50" xmlns="http://www.w3.org/2000/svg"><path d="m24.984375-.01367188a1.0001 1.0001 0 0 0 -.984375 1.01367188v7.5859375l-4.292969-4.2929687a1.0001 1.0001 0 0 0 -.716797-.3027344 1.0001 1.0001 0 0 0 -.697265 1.7167968l5.707031 5.7070308v11.855469l-10.265625-5.927734-2.087891-7.7968751a1.0001 1.0001 0 0 0 -.947265-.7539063 1.0001 1.0001 0 0 0 -.9843752 1.2714844l1.5703122 5.865234-6.5703122-3.792968a1.0001 1.0001 0 0 0 -.4746094-.142578 1.0001 1.0001 0 0 0 -.0996094.001953 1.0001 1.0001 0 0 0 -.4257812 1.871093l6.5703122 3.792969-5.863281 1.572266a1.0001 1.0001 0 1 0 .5175781 1.93164l7.7968749-2.08789 10.265625 5.925781-10.265625 5.925781-7.7968749-2.08789a1.0001 1.0001 0 0 0 -.296875-.03711 1.0001 1.0001 0 0 0 -.2207031 1.96875l5.863281 1.572266-6.5703122 3.792969a1.0001 1.0001 0 1 0 1 1.730468l6.5703122-3.792968-1.5703122 5.865234a1.0001 1.0001 0 1 0 1.9316402.517578l2.087891-7.796875 10.265625-5.927734v11.855469l-5.707031 5.707031a1.0001 1.0001 0 1 0 1.414062 1.414062l4.292969-4.292969v7.585938a1.0001 1.0001 0 1 0 2 0v-7.585938l4.292969 4.292969a1.0001 1.0001 0 1 0 1.414062-1.414062l-5.707031-5.707031v-11.855469l10.265625 5.927734 2.087891 7.796875a1.0001 1.0001 0 1 0 1.93164-.517578l-1.570312-5.865234 6.570312 3.792968a1.0001 1.0001 0 1 0 1-1.730468l-6.570312-3.792969 5.863281-1.572266a1.0001 1.0001 0 0 0 -.25-1.96875 1.0001 1.0001 0 0 0 -.267578.03711l-7.796875 2.08789-10.265625-5.925781 10.265625-5.925781 7.796875 2.08789a1.0001 1.0001 0 1 0 .517578-1.93164l-5.863281-1.572266 6.570312-3.792969a1.0001 1.0001 0 0 0 -.455078-1.871093 1.0001 1.0001 0 0 0 -.544922.140625l-6.570312 3.792968 1.570312-5.865234a1.0001 1.0001 0 0 0 -1.015625-1.2714844 1.0001 1.0001 0 0 0 -.916015.7539063l-2.087891 7.7968751-10.265625 5.927734v-11.855469l5.707031-5.7070308a1.0001 1.0001 0 1 0 -1.414062-1.4140624l-4.292969 4.2929687v-7.5859375a1.0001 1.0001 0 0 0 -1.015625-1.01367188z"/></svg>

<svg xmlns="http://www.w3.org/2000/svg" viewBox="0 0 50 50" width="50" height="50" fill="#666"><path style="line-height:normal;text-indent:0;text-align:start;text-decoration-line:none;text-decoration-style:solid;text-decoration-color:#000;text-transform:none;block-progression:tb;isolation:auto;mix-blend-mode:normal" d="M 24.984375 -0.013671875 A 1.0001 1.0001 0 0 0 24 1 L 24 8.5859375 L 19.707031 4.2929688 A 1.0001 1.0001 0 0 0 18.990234 3.9902344 A 1.0001 1.0001 0 0 0 18.292969 5.7070312 L 24 11.414062 L 24 23.269531 L 13.734375 17.341797 L 11.646484 9.5449219 A 1.0001 1.0001 0 0 0 10.699219 8.7910156 A 1.0001 1.0001 0 0 0 9.7148438 10.0625 L 11.285156 15.927734 L 4.7148438 12.134766 A 1.0001 1.0001 0 0 0 4.2402344 11.992188 A 1.0001 1.0001 0 0 0 4.140625 11.994141 A 1.0001 1.0001 0 0 0 3.7148438 13.865234 L 10.285156 17.658203 L 4.421875 19.230469 A 1.0001 1.0001 0 1 0 4.9394531 21.162109 L 12.736328 19.074219 L 23.001953 25 L 12.736328 30.925781 L 4.9394531 28.837891 A 1.0001 1.0001 0 0 0 4.6425781 28.800781 A 1.0001 1.0001 0 0 0 4.421875 30.769531 L 10.285156 32.341797 L 3.7148438 36.134766 A 1.0001 1.0001 0 1 0 4.7148438 37.865234 L 11.285156 34.072266 L 9.7148438 39.9375 A 1.0001 1.0001 0 1 0 11.646484 40.455078 L 13.734375 32.658203 L 24 26.730469 L 24 38.585938 L 18.292969 44.292969 A 1.0001 1.0001 0 1 0 19.707031 45.707031 L 24 41.414062 L 24 49 A 1.0001 1.0001 0 1 0 26 49 L 26 41.414062 L 30.292969 45.707031 A 1.0001 1.0001 0 1 0 31.707031 44.292969 L 26 38.585938 L 26 26.730469 L 36.265625 32.658203 L 38.353516 40.455078 A 1.0001 1.0001 0 1 0 40.285156 39.9375 L 38.714844 34.072266 L 45.285156 37.865234 A 1.0001 1.0001 0 1 0 46.285156 36.134766 L 39.714844 32.341797 L 45.578125 30.769531 A 1.0001 1.0001 0 0 0 45.328125 28.800781 A 1.0001 1.0001 0 0 0 45.060547 28.837891 L 37.263672 30.925781 L 26.998047 25 L 37.263672 19.074219 L 45.060547 21.162109 A 1.0001 1.0001 0 1 0 45.578125 19.230469 L 39.714844 17.658203 L 46.285156 13.865234 A 1.0001 1.0001 0 0 0 45.830078 11.994141 A 1.0001 1.0001 0 0 0 45.285156 12.134766 L 38.714844 15.927734 L 40.285156 10.0625 A 1.0001 1.0001 0 0 0 39.269531 8.7910156 A 1.0001 1.0001 0 0 0 38.353516 9.5449219 L 36.265625 17.341797 L 26 23.269531 L 26 11.414062 L 31.707031 5.7070312 A 1.0001 1.0001 0 1 0 30.292969 4.2929688 L 26 8.5859375 L 26 1 A 1.0001 1.0001 0 0 0 24.984375 -0.013671875 z"/></svg>
